nl/ja/images/IBP-Diagram.svg

<?xml version="1.0" encoding="UTF-8"?>
<svg width="2387px" height="1001px" viewBox="0 0 2387 1001" version="1.1" xmlns="http://www.w3.org/2000/svg" xmlns:xlink="http://www.w3.org/1999/xlink">
    <!-- Generator: Sketch 54.1 (76490) - https://sketchapp.com -->
    <title>IBP_Deployment 2</title>
    <desc>Created with Sketch.</desc>
    <g id="IBP_Deployment-2" stroke="none" stroke-width="1" fill="none" fill-rule="evenodd">
        <rect fill="#FFFFFF" x="0" y="0" width="2387" height="1001"></rect>
        <g id="Group" opacity="0.866699219" transform="translate(524.000000, 107.000000)">
            <rect id="Rectangle" stroke="#FFFFFF" fill="#011688" x="0.5" y="0.5" width="1124" height="853"></rect>
            <text id="IBM-Blockchain-Platf" font-family="IBMPlexSans-SemiBold, IBM Plex Sans" font-size="37.07" font-weight="500" fill="#FFFFFF">
                <tspan x="193.9768" y="83">IBM Blockchain Platform</tspan>
            </text>
            <text id="The-service-that-all" font-family="IBMPlexSans, IBM Plex Sans" font-size="28.07" font-weight="normal" fill="#FFFFFF">
                <tspan x="192" y="128">Hyperledger Fabric ノードの</tspan>
                <tspan x="192" y="165">デプロイと管理を可能にするサービス。</tspan>
            </text>
        </g>
        <g id="Group" transform="translate(574.000000, 153.000000)">
            <circle id="Oval" stroke="#979797" fill="#FFFFFF" cx="51" cy="36" r="36"></circle>
            <rect id="Rectangle" stroke="#FFFCFC" fill="#011688" x="0.5" y="186.5" width="1021" height="109"></rect>
        </g>
        <g id="Group" transform="translate(572.000000, 797.000000)" fill="#011688" stroke="#FFFAFA">
            <rect id="Rectangle" x="0.5" y="0.5" width="1021" height="109"></rect>
        </g>
        <g id="Group-3" transform="translate(574.000000, 459.000000)">
            <g id="Group" fill="#011688" stroke="#FFFBFB">
                <rect id="Rectangle" x="0.5" y="0.5" width="1021" height="327"></rect>
            </g>
            <g id="Group" transform="translate(35.000000, 102.000000)" fill="#FFFFFF" stroke="#979797">
                <rect id="Rectangle" x="0.5" y="0.5" width="294" height="173"></rect>
            </g>
            <g id="Group" transform="translate(350.000000, 102.000000)" fill="#FFFFFF" stroke="#979797">
                <rect id="Rectangle" x="0.5" y="0.5" width="327" height="173"></rect>
            </g>
            <g id="Group" transform="translate(698.000000, 101.000000)" fill="#FFFFFF" stroke="#979797">
                <rect id="Rectangle" x="0.5" y="0.5" width="294" height="174"></rect>
            </g>
            <text id="Hyperledger-Fabric-C" font-family="IBMPlexSans-SemiBold, IBM Plex Sans" font-size="37.07" font-weight="500" fill="#FFFFFF">
                <tspan x="244.420285" y="63">Hyperledger Fabric コンポーネント</tspan>
            </text>
            <text id="Certificate-Authorit" font-family="IBMPlexSans-SemiBold, IBM Plex Sans" font-size="25.07" font-weight="500" line-spacing="32" fill="#000000">
                <tspan x="114" y="181">認証</tspan>
                <tspan x="114" y="213">局</tspan>
            </text>
            <text id="Peer" font-family="IBMPlexSans-SemiBold, IBM Plex Sans" font-size="25.07" font-weight="500" fill="#000000">
                <tspan x="484.80045" y="198">ピア</tspan>
            </text>
            <text id="Ordering-Service" font-family="IBMPlexSans-SemiBold, IBM Plex Sans" font-size="25.07" font-weight="500" line-spacing="31" fill="#000000">
                <tspan x="787.76239" y="185.39513">順序付け</tspan>
                <tspan x="795.58423" y="216.39513">サービス</tspan>
            </text>
        </g>
        <text id="Blockchain-Service" font-family="IBMPlexSans-SemiBold, IBM Plex Sans" font-size="37.07" font-weight="500" fill="#000000">
            <tspan x="530.003655" y="79">ブロックチェーン・サービス</tspan>
        </text>
        <text id="IBM-Blockchain-Platf" font-family="IBMPlexSans-SemiBold, IBM Plex Sans" font-size="37.07" font-weight="500" fill="#FFFFFF">
            <tspan x="780.89699" y="409">IBM Blockchain Platform コンソール (UI)</tspan>
        </text>
        <g id="IBP_2_0_Service_Tile_Icon" transform="translate(585.000000, 152.000000)" fill="#13171A" fill-rule="nonzero">
            <path d="M41.5,0 C18.5801829,-1.25125444e-15 2.80686807e-15,16.5654643 0,37 C-2.80686807e-15,57.4345357 18.5801829,74 41.5,74 C64.4198171,74 83,57.4345357 83,37 C83,27.1869899 78.6276911,17.7758951 70.8449314,10.8370491 C63.0621717,3.89820309 52.5064843,6.00873572e-16 41.5,0 Z M23.34375,50.875 L18.15625,50.875 L18.15625,23.125 L23.34375,23.125 L23.34375,50.875 Z M57.0625,57.8125 L25.9375,57.8125 L25.9375,53.1875 L57.0625,53.1875 L57.0625,57.8125 Z M57.0625,20.8125 L25.9375,20.8125 L25.9375,16.1875 L57.0625,16.1875 L57.0625,20.8125 Z M64.84375,50.875 L59.65625,50.875 L59.65625,23.125 L64.84375,23.125 L64.84375,50.875 Z" id="Shape"></path>
        </g>
        <text id="IBM-Blockchain-Platf" font-family="IBMPlexSans-SemiBold, IBM Plex Sans" font-size="37.07" font-weight="500" fill="#FFFFFF">
            <tspan x="680.3421" y="866">IBM Blockchain Platform の VS Code 用の拡張機能  </tspan>
        </text>
    </g>
</svg>

<?xml version="1.0" encoding="UTF-8" standalone="no"?>
<svg
   xmlns:dc="http://purl.org/dc/elements/1.1/"
   xmlns:cc="http://creativecommons.org/ns#"
   xmlns:rdf="http://www.w3.org/1999/02/22-rdf-syntax-ns#"
   xmlns:svg="http://www.w3.org/2000/svg"
   xmlns="http://www.w3.org/2000/svg"
   xmlns:sodipodi="http://sodipodi.sourceforge.net/DTD/sodipodi-0.dtd"
   xmlns:inkscape="http://www.inkscape.org/namespaces/inkscape"
   width="2387px"
   height="1001px"
   viewBox="0 0 2387 1001"
   version="1.1"
   id="svg74"
   sodipodi:docname="IBP-Diagram.svg"
   inkscape:version="0.92.4 (5da689c313, 2019-01-14)"
   inkscape:export-filename="D:\_work\IBM\BM140\BM140ABD141_007\UT_kumi\01_work\_Art\01_New\jpn\IBP-Diagram.png"
   inkscape:export-xdpi="40.183815"
   inkscape:export-ydpi="40.183815">
  <metadata
     id="metadata80">
    <rdf:RDF>
      <cc:Work
         rdf:about="">
        <dc:format>image/svg+xml</dc:format>
        <dc:type
           rdf:resource="http://purl.org/dc/dcmitype/StillImage" />
      </cc:Work>
    </rdf:RDF>
  </metadata>
  <defs
     id="defs78" />
  <sodipodi:namedview
     pagecolor="#ffffff"
     bordercolor="#666666"
     borderopacity="1"
     objecttolerance="10"
     gridtolerance="10"
     guidetolerance="10"
     inkscape:pageopacity="0"
     inkscape:pageshadow="2"
     inkscape:window-width="1920"
     inkscape:window-height="1017"
     id="namedview76"
     showgrid="false"
     inkscape:zoom="0.59991621"
     inkscape:cx="1193.5"
     inkscape:cy="500.5"
     inkscape:window-x="-8"
     inkscape:window-y="-8"
     inkscape:window-maximized="1"
     inkscape:current-layer="svg74" />
  <!-- Generator: Sketch 54.1 (76490) - https://sketchapp.com -->
  <title
     id="title2">IBP_Deployment 2</title>
  <desc
     id="desc4">Created with Sketch.</desc>
  <rect
     style="fill:#ffffff;fill-rule:evenodd;stroke:none;stroke-width:1"
     id="rect6"
     height="1001"
     width="2387"
     y="0"
     x="0" />
  <g
     style="opacity:0.86669922;fill:none;fill-rule:evenodd;stroke:none;stroke-width:1"
     transform="translate(524,107)"
     id="Group">
    <rect
       style="fill:#011688;stroke:#ffffff"
       height="853"
       width="1124"
       y="0.5"
       x="0.5"
       id="Rectangle" />
    <text
       style="font-weight:500;font-size:37.06999969px;font-family:'Source Han Sans';fill:#ffffff"
       font-weight="500"
       font-size="37.07"
       id="IBM-Blockchain-Platf">
      <tspan
         id="tspan9"
         y="83"
         x="193.97681">IBM Blockchain Platform</tspan>
    </text>
    <text
       style="font-weight:normal;font-size:28.06999969px;font-family:'Source Han Sans';fill:#ffffff"
       font-weight="normal"
       font-size="28.07"
       id="The-service-that-all">
      <tspan
         id="tspan12"
         y="128"
         x="192">Hyperledger Fabric ノードの</tspan>
      <tspan
         id="tspan14"
         y="165"
         x="192">デプロイと管理を可能にするサービス。</tspan>
    </text>
  </g>
  <g
     style="fill:none;fill-rule:evenodd;stroke:none;stroke-width:1"
     transform="translate(574,153)"
     id="g21">
    <circle
       style="fill:#ffffff;stroke:#979797"
       r="36"
       cy="36"
       cx="51"
       id="Oval" />
    <rect
       style="fill:#011688;stroke:#fffcfc"
       height="109"
       width="1021"
       y="186.5"
       x="0.5"
       id="rect19" />
  </g>
  <g
     style="fill:#011688;fill-rule:evenodd;stroke:#fffafa;stroke-width:1"
     transform="translate(572,797)"
     id="g25">
    <rect
       height="109"
       width="1021"
       y="0.5"
       x="0.5"
       id="rect23" />
  </g>
  <g
     id="g29"
     style="fill:#011688;fill-rule:evenodd;stroke:#fffbfb;stroke-width:1"
     transform="translate(574,459)">
    <rect
       id="rect27"
       x="0.5"
       y="0.5"
       width="1021"
       height="327" />
  </g>
  <g
     id="g33"
     transform="translate(609,561)"
     style="fill:#ffffff;fill-rule:evenodd;stroke:#979797;stroke-width:1">
    <rect
       id="rect31"
       x="0.5"
       y="0.5"
       width="294"
       height="173" />
  </g>
  <g
     id="g37"
     transform="translate(924,561)"
     style="fill:#ffffff;fill-rule:evenodd;stroke:#979797;stroke-width:1">
    <rect
       id="rect35"
       x="0.5"
       y="0.5"
       width="327"
       height="173" />
  </g>
  <g
     id="g41"
     transform="translate(1272,560)"
     style="fill:#ffffff;fill-rule:evenodd;stroke:#979797;stroke-width:1">
    <rect
       id="rect39"
       x="0.5"
       y="0.5"
       width="294"
       height="174" />
  </g>
  <text
     id="Hyperledger-Fabric-C"
     font-size="37.07"
     font-weight="500"
     style="font-weight:500;font-size:37.06999969px;font-family:'Source Han Sans';fill:#ffffff;fill-rule:evenodd;stroke:none;stroke-width:1"
     x="536"
     y="459">
    <tspan
       x="780.42029"
       y="522"
       id="tspan43">Hyperledger Fabric コンポーネント</tspan>
  </text>
  <text
     id="Certificate-Authorit"
     font-size="25.07"
     font-weight="500"
     line-spacing="32"
     style="font-style:normal;font-variant:normal;font-weight:normal;font-stretch:normal;font-size:37.33333333px;font-family:sans-serif;-inkscape-font-specification:'sans-serif, Normal';font-variant-ligatures:normal;font-variant-caps:normal;font-variant-numeric:normal;font-feature-settings:normal;text-align:start;writing-mode:lr;text-anchor:start;fill:#000000;fill-rule:evenodd;stroke:none;stroke-width:1;"
     x="695.68365"
     y="662.36176">
    <tspan
       sodipodi:role="line"
       id="tspan142"
       x="695.68365"
       y="662.36176">認証局</tspan>
  </text>
  <text
     id="Peer"
     font-size="25.07"
     font-weight="500"
     style="font-style:normal;font-variant:normal;font-weight:normal;font-stretch:normal;font-size:37.33333333px;font-family:sans-serif;-inkscape-font-specification:'sans-serif, Normal';font-variant-ligatures:normal;font-variant-caps:normal;font-variant-numeric:normal;font-feature-settings:normal;text-align:start;writing-mode:lr;text-anchor:start;fill:#000000;fill-rule:evenodd;stroke:none;stroke-width:1;"
     x="1040.7318"
     y="662.36176">
    <tspan
       sodipodi:role="line"
       id="tspan146"
       x="1040.7318"
       y="662.36176">ピア</tspan>
  </text>
  <text
     id="Ordering-Service"
     font-size="25.07"
     font-weight="500"
     line-spacing="31"
     style="font-style:normal;font-variant:normal;font-weight:normal;font-stretch:normal;font-size:37.33333206px;font-family:sans-serif;-inkscape-font-specification:'sans-serif, Normal';font-variant-ligatures:normal;font-variant-caps:normal;font-variant-numeric:normal;font-feature-settings:normal;text-align:start;writing-mode:lr-tb;text-anchor:start;fill:#000000;fill-rule:evenodd;stroke:none;stroke-width:1"
     x="1340.7737"
     y="639.02515">
    <tspan
       sodipodi:role="line"
       id="tspan150"
       x="1340.7737"
       y="639.02515">順序付け</tspan>
    <tspan
       sodipodi:role="line"
       x="1340.7737"
       y="688.38147"
       id="tspan152">サービス</tspan>
  </text>
  <text
     style="font-weight:500;font-size:37.06999969px;font-family:'Source Han Sans';fill:#000000;fill-rule:evenodd;stroke:none;stroke-width:1"
     font-weight="500"
     font-size="37.07"
     id="Blockchain-Service">
    <tspan
       id="tspan60"
       y="79"
       x="530.00366">ブロックチェーン・サービス</tspan>
  </text>
  <text
     style="font-weight:500;font-size:37.06999969px;font-family:'Source Han Sans';fill:#ffffff;fill-rule:evenodd;stroke:none;stroke-width:1"
     font-weight="500"
     font-size="37.07"
     id="text65"
     x="-36">
    <tspan
       id="tspan63"
       y="409"
       x="744.89697">IBM Blockchain Platform コンソール (UI)</tspan>
  </text>
  <g
     style="fill:#13171a;fill-rule:nonzero;stroke:none;stroke-width:1"
     transform="translate(585,152)"
     id="IBP_2_0_Service_Tile_Icon">
    <path
       inkscape:connector-curvature="0"
       id="Shape"
       d="M 41.5,0 C 18.580183,0 0,16.565464 0,37 0,57.434536 18.580183,74 41.5,74 64.419817,74 83,57.434536 83,37 83,27.18699 78.627691,17.775895 70.844931,10.837049 63.062172,3.8982031 52.506484,0 41.5,0 Z M 23.34375,50.875 h -5.1875 v -27.75 h 5.1875 z m 33.71875,6.9375 h -31.125 v -4.625 h 31.125 z m 0,-37 h -31.125 v -4.625 h 31.125 z m 7.78125,30.0625 h -5.1875 v -27.75 h 5.1875 z" />
  </g>
  <text
     style="font-weight:500;font-size:37.06999969px;font-family:'Source Han Sans';fill:#ffffff;fill-rule:evenodd;stroke:none;stroke-width:1"
     font-weight="500"
     font-size="37.07"
     id="text71"
     x="-18">
    <tspan
       id="tspan69"
       y="866"
       x="662.3421">IBM Blockchain Platform の VS Code 用の拡張機能</tspan>
  </text>
</svg>
